assets/Woman bald/Dark/Flat/woman_bald_flat_dark.svg

<svg width="32" height="32" viewBox="0 0 32 32" fill="none" xmlns="http://www.w3.org/2000/svg">
<path d="M28 17.9C28 19.5569 26.6569 20.9 25 20.9C23.3431 20.9 22 19.5569 22 17.9C22 16.2432 23.3431 14.9 25 14.9C26.6569 14.9 28 16.2432 28 17.9Z" fill="#4E3233"/>
<path d="M10.3 18C10.3 19.6569 8.95684 21 7.29999 21C5.64313 21 4.29999 19.6569 4.29999 18C4.29999 16.3432 5.64313 15 7.29999 15C8.95684 15 10.3 16.3432 10.3 18Z" fill="#4E3233"/>
<path d="M6.69696 20.0181C6.92684 25.2431 11.0071 28.7516 15.9878 28.7516C20.9684 28.7516 25.0487 25.2431 25.2786 20.0181L25.3 11.5C25.3 8.19936 23.2424 5.57961 19 4.76442C17.4 4.55288 14.5 4.54998 13 4.76442C8.75757 5.57961 6.7 8.19936 6.7 11.5L6.69696 20.0181Z" fill="#573739"/>
<path d="M15.2872 17.5266L14.2963 20.6961C14.0941 21.348 14.5794 22 15.2669 22H16.7331C17.4206 22 17.9059 21.338 17.7037 20.6961L16.7128 17.5266C16.5005 16.8245 15.5096 16.8245 15.2872 17.5266Z" fill="#3D2123"/>
<path d="M16 23.3954C15.0538 23.3954 14.1644 23.1727 13.417 22.7831C13.1615 22.6532 12.8871 22.9408 13.048 23.1727C13.6724 24.1191 14.7605 24.75 16 24.75C17.2395 24.75 18.3276 24.1191 18.952 23.1727C19.1129 22.9315 18.8385 22.6532 18.583 22.7831C17.8356 23.1727 16.9556 23.3954 16 23.3954Z" fill="#290118"/>
<path d="M11 15.4C12 15.4 13.025 16.2 13.525 17C12.9262 17.1843 12.3698 17.3261 11.8266 17.4645C11.1904 17.6267 10.5723 17.7843 9.92499 18L8.92497 17.3C8.52497 17 8.42498 16.5 9.02497 16.1C9.62497 15.6 10.3 15.4 11 15.4Z" fill="black"/>
<path d="M21.2 15.4C20.2 15.4 19.175 16.2 18.675 17C19.2738 17.1843 19.8301 17.3261 20.3734 17.4645C21.0095 17.6267 21.6277 17.7843 22.275 18L23.275 17.3C23.675 17 23.775 16.5 23.175 16.1C22.575 15.6 21.9 15.4 21.2 15.4Z" fill="black"/>
<path d="M9.01481 17.3673C9.30113 16.2403 10.3279 15.4 11.5423 15.4C12.8061 15.4 13.8625 16.2996 14.0994 17.4958C14.1488 17.7628 13.9415 18 13.6749 18H9.51834C9.18266 18 8.93583 17.6936 9.01481 17.3673Z" fill="white"/>
<path d="M22.9852 17.3673C22.6989 16.2403 21.6721 15.4 20.4577 15.4C19.1841 15.4 18.1375 16.2996 17.9006 17.4958C17.8512 17.7628 18.0585 18 18.3251 18H22.4817C22.8173 18 23.0642 17.6936 22.9852 17.3673Z" fill="white"/>
<path d="M10.2588 17.5568C10.2588 16.6311 11.0091 15.8925 11.9273 15.8925C12.8455 15.8925 13.586 16.6311 13.586 17.5568C13.586 17.7144 13.5663 17.8622 13.5268 18H10.318C10.2785 17.8523 10.2588 17.7144 10.2588 17.5568Z" fill="#7D4533"/>
<path d="M21.7412 17.5568C21.7412 16.6311 20.9908 15.8925 20.0726 15.8925C19.1545 15.8925 18.4041 16.6311 18.414 17.5568C18.414 17.7144 18.4337 17.8622 18.4732 18H21.682C21.7214 17.8523 21.7412 17.7144 21.7412 17.5568Z" fill="#7D4533"/>
<path d="M11.9274 16.6113C12.4506 16.6113 12.8752 17.0348 12.8752 17.5568C12.8752 17.7144 12.8357 17.8621 12.7666 18H11.0882C11.019 17.8621 10.9796 17.7144 10.9796 17.5568C10.9796 17.0348 11.4041 16.6113 11.9274 16.6113Z" fill="black"/>
<path d="M20.0627 16.6113C19.5395 16.6113 19.1149 17.0348 19.1149 17.5568C19.1149 17.7144 19.1544 17.8621 19.2235 18H20.902C20.9711 17.8621 21.0106 17.7144 21.0106 17.5568C21.0106 17.0348 20.586 16.6113 20.0627 16.6113Z" fill="black"/>
<path d="M11.6509 16.92C11.6509 17.0857 11.5183 17.22 11.3547 17.22C11.1911 17.22 11.0585 17.0857 11.0585 16.92C11.0585 16.7543 11.1911 16.62 11.3547 16.62C11.5183 16.62 11.6509 16.7543 11.6509 16.92Z" fill="white"/>
<path d="M19.8456 16.92C19.8456 17.0857 19.7129 17.22 19.5494 17.22C19.3858 17.22 19.2532 17.0857 19.2532 16.92C19.2532 16.7543 19.3858 16.62 19.5494 16.62C19.7129 16.62 19.8456 16.7543 19.8456 16.92Z" fill="white"/>
<path d="M9.66547 14.5853L9.65729 14.59C9.42053 14.7319 9.11332 14.6552 8.97129 14.4185C8.82922 14.1817 8.906 13.8746 9.14279 13.7325L9.14415 13.7317L9.14608 13.7305L9.15158 13.7273L9.16913 13.7171C9.1837 13.7088 9.20396 13.6974 9.22961 13.6835C9.28087 13.6558 9.35381 13.6178 9.44585 13.5739C9.62956 13.4864 9.89141 13.3742 10.2105 13.2724C10.8442 13.0702 11.7303 12.9 12.6869 13.0688C12.9589 13.1168 13.1404 13.3762 13.0924 13.6481C13.0444 13.9201 12.7851 14.1016 12.5131 14.0536C11.7697 13.9224 11.0559 14.0523 10.5146 14.2251C10.2462 14.3107 10.0268 14.4048 9.87611 14.4767C9.80096 14.5125 9.74343 14.5425 9.70602 14.5628C9.68733 14.5729 9.67371 14.5806 9.66547 14.5853Z" fill="black"/>
<path d="M22.857 13.7323L22.8559 13.7317L22.854 13.7305L22.8485 13.7273L22.8309 13.7171C22.8164 13.7088 22.7961 13.6974 22.7705 13.6835C22.7192 13.6558 22.6463 13.6178 22.5542 13.5739C22.3705 13.4864 22.1087 13.3742 21.7896 13.2724C21.1559 13.0702 20.2697 12.9 19.3131 13.0688C19.0412 13.1168 18.8597 13.3762 18.9076 13.6481C18.9556 13.9201 19.215 14.1016 19.4869 14.0536C20.2303 13.9224 20.9442 14.0523 21.4855 14.2251C21.7539 14.3107 21.9733 14.4048 22.124 14.4767C22.1991 14.5125 22.2567 14.5425 22.2941 14.5628C22.3128 14.5729 22.3264 14.5806 22.3346 14.5853L22.3429 14.59L22.3438 14.5906C22.5804 14.7318 22.8869 14.655 23.0288 14.4185C23.1709 14.1817 23.0938 13.8744 22.857 13.7323Z" fill="black"/>
</svg>

<svg xmlns="http://www.w3.org/2000/svg" width="32" height="32" fill="none"><path fill="#4E3233" d="M28 17.9a3 3 0 1 1-6 0 3 3 0 0 1 6 0ZM10.3 18a3 3 0 1 1-6 0 3 3 0 0 1 6 0Z"/><path fill="#573739" d="M6.697 20.018c.23 5.225 4.31 8.734 9.29 8.734 4.981 0 9.062-3.509 9.292-8.734L25.3 11.5c0-3.3-2.058-5.92-6.3-6.736-1.6-.211-4.5-.214-6 0C8.758 5.58 6.7 8.2 6.7 11.5l-.003 8.518Z"/><path fill="#3D2123" d="m15.287 17.527-.99 3.17a1.005 1.005 0 0 0 .97 1.303h1.466c.688 0 1.173-.662.97-1.304l-.99-3.17c-.213-.701-1.203-.701-1.426 0Z"/><path fill="#290118" d="M16 23.395a5.603 5.603 0 0 1-2.583-.612c-.255-.13-.53.158-.369.39A3.53 3.53 0 0 0 16 24.75a3.53 3.53 0 0 0 2.952-1.577c.16-.241-.114-.52-.369-.39a5.574 5.574 0 0 1-2.583.612Z"/><path fill="#000" d="M11 15.4c1 0 2.025.8 2.525 1.6-.599.184-1.155.326-1.698.465-.637.162-1.255.32-1.902.535l-1-.7c-.4-.3-.5-.8.1-1.2.6-.5 1.275-.7 1.975-.7ZM21.2 15.4c-1 0-2.025.8-2.525 1.6.599.184 1.155.326 1.698.465.636.162 1.255.32 1.902.535l1-.7c.4-.3.5-.8-.1-1.2-.6-.5-1.275-.7-1.975-.7Z"/><path fill="#fff" d="M9.015 17.367a2.607 2.607 0 0 1 5.085.128.428.428 0 0 1-.425.505H9.518a.512.512 0 0 1-.503-.633ZM22.985 17.367a2.617 2.617 0 0 0-2.527-1.967 2.6 2.6 0 0 0-2.557 2.096.428.428 0 0 0 .424.504h4.157a.512.512 0 0 0 .503-.633Z"/><path fill="#7D4533" d="M10.259 17.557a1.664 1.664 0 1 1 3.268.443h-3.209a1.655 1.655 0 0 1-.06-.443ZM21.741 17.557c0-.926-.75-1.664-1.668-1.664a1.65 1.65 0 0 0-1.659 1.664c0 .157.02.305.06.443h3.208c.04-.148.06-.286.06-.443Z"/><path fill="#000" d="M11.927 16.611a.947.947 0 0 1 .84 1.389h-1.679a.947.947 0 0 1 .84-1.389ZM20.063 16.611a.947.947 0 0 0-.84 1.389h1.679a.947.947 0 0 0-.84-1.389Z"/><path fill="#fff" d="M11.65 16.92c0 .166-.132.3-.295.3a.298.298 0 0 1-.296-.3c0-.166.132-.3.296-.3.163 0 .296.134.296.3ZM19.846 16.92c0 .166-.133.3-.297.3a.298.298 0 0 1-.296-.3c0-.166.133-.3.296-.3.164 0 .297.134.297.3Z"/><path fill="#000" d="m9.665 14.585-.008.005a.5.5 0 0 1-.514-.857l.001-.001.002-.002.006-.003.017-.01a3.226 3.226 0 0 1 .277-.143c.184-.088.445-.2.764-.302.634-.202 1.52-.372 2.477-.203a.5.5 0 1 1-.174.985c-.743-.132-1.457-.002-1.998.171a5.088 5.088 0 0 0-.85.36ZM22.857 13.732h-.001l-.002-.002-.005-.003-.018-.01a4.822 4.822 0 0 0-.277-.143 6.11 6.11 0 0 0-.764-.302c-.634-.202-1.52-.372-2.477-.203a.5.5 0 0 0 .174.985c.743-.132 1.457-.002 1.998.171a5.089 5.089 0 0 1 .85.36l.008.005a.5.5 0 0 0 .514-.858Z"/></svg>
